X: 404
T:Eddie Moloney's
R:reel
M:C|
Z:Lesl Harker
K:Edor
D|EFGA BE~E2|GEcE GE~ED|EFGA Bze~e|dBAG FDDz
EFGA BE~E2|GEcE GE~ED|EFGA Bze~e|dBAG Fddz||
e~e2d cA(3Bcd|e~e2f gz{b}ag|eged cABc|dBAG Fddz|
e~e2d cA(3Bcd|e~e2f gz{b}ag|e~e2d cABc|dBAG FDD2||

